!!!OTL: Graf und Nonne (Die Nonne)
!!!OTL-incipit:Ich habe den Fruehling gesehen,
!!!ARE: Europa, Mitteleuropa, Deutschland (BRD), Niedersachsen, Dransfeld
!!!YOR: 8, S. 291
!!    1865 aufgezeichnet (vor)
!!!SCT: Q1155L.
!!!TXL: @@DE
!!!YEM: Copyright 1995, estate of Helmut Schaffrath.
**kern	**text
*ICvox	*
*M3/4	*
*k[f#]	*
*G:	*
{4d	Ich
=1	=1
4g	ha-
4g	-be
4d	den
=2	=2
4B	Früh-
4d	-ling
4g	ge-
=3	=3
4b	-se-
2a	-hen,
=4	=4
2r}	.
{4d	und
=5	=5
4d	ha-
4f#	-be
4a	die
=6	=6
4.cc	Blu-
8a	-men
4f#	ge-
=7	=7
2.g	-pflückt.
=8	=8
4r	.
4r}	.
{4b	Jns
=9	=9
4.b	Grab
8b	ist
4b	mein
=10	=10
4.b/	Liebehen
8a	.
4g	ge-
=11	=11
4g	-sun-
2e	-ken,
=12	=12
2r}	.
{4cc	der
=13	=13
4.b	ein-
8a	-stens
4g	die
=14	=14
4.a	Ro-
8g	-sen
4f#	mir
=15	=15
2.g}	gab.
=16	=16
{4G	La-
4B	-la-
4d	-la-
=17	=17
2.g	-la-
=18	=18
4d	-la-
4f#	-la-
4a	-la-
=19	=19
2cc}	-la,
{4dd	der
=20	=20
4.b/	ein-
8a	-stens
4g	die
=21	=21
4.a	Ro-
8g	-sen
4f#	mir
=22	=22
2.g}	gab.
=23	=23
{4G	La-
4B	-la-
4d	-la-
=24	=24
2.g	-la-
=25	=25
4d	-la-
4f#	-la-
4a	-la-
=26	=26
2cc}	-la,
{4dd	der
=27	=27
4.b/	ein-
8a	-stens
4g	die
=28	=28
4.a	Ro-
8g	-sen
4f#	mir
=29	=29
2.g	gab.
=30	=30
2r}	.
==	==
!!!AGN: Klage - Lied ???
!! Melodievergleich zu Q0155M., anderes Lied (genetisch verwandt ?).
!!    Refrain auf sinnfreie Silben in der fuenften und siebten Zeile.
!!    Schlusspause ergaenzt.
!!!ONB: ESAC (Essen Associative Code) Database: BALLADE
!!!AMT: simple triple
!!!AIN: vox
!!!EED: Helmut Schaffrath
!!!EEV: 1.0
!!!source: Deutsche Volkslieder mit ihren Melodien. Herausgegeben vom Deutschen Volksliedarchiv. Achter Teil. Freiburg/Breisgau 1988.
!!!page: 291
!!!ENC: Anna Maria Matuszewska
!!!EEV: 2025/03/10
*-	*-
